svgs/light/menorah.svg

<svg xmlns="http://www.w3.org/2000/svg" viewBox="0 0 640 512"><!--! Font Awesome Pro 6.6.0 by @fontawesome - https://fontawesome.com License - https://fontawesome.com/license (Commercial License) Copyright 2024 Fonticons, Inc. --><path d="M48 16l0 64c0 8.8-7.2 16-16 16s-16-7.2-16-16l0-64C16 7.2 23.2 0 32 0s16 7.2 16 16zm96 0l0 64c0 8.8-7.2 16-16 16s-16-7.2-16-16l0-64c0-8.8 7.2-16 16-16s16 7.2 16 16zm96 0l0 64c0 8.8-7.2 16-16 16s-16-7.2-16-16l0-64c0-8.8 7.2-16 16-16s16 7.2 16 16zm96 0l0 64c0 8.8-7.2 16-16 16s-16-7.2-16-16l0-64c0-8.8 7.2-16 16-16s16 7.2 16 16zm96 0l0 64c0 8.8-7.2 16-16 16s-16-7.2-16-16l0-64c0-8.8 7.2-16 16-16s16 7.2 16 16zm96 0l0 64c0 8.8-7.2 16-16 16s-16-7.2-16-16l0-64c0-8.8 7.2-16 16-16s16 7.2 16 16zm96 0l0 64c0 8.8-7.2 16-16 16s-16-7.2-16-16l0-64c0-8.8 7.2-16 16-16s16 7.2 16 16zM32 128c8.8 0 16 7.2 16 16l0 160c0 26.5 21.5 48 48 48l16 0 0-208c0-8.8 7.2-16 16-16s16 7.2 16 16l0 208 64 0 0-208c0-8.8 7.2-16 16-16s16 7.2 16 16l0 208 64 0 0-208c0-8.8 7.2-16 16-16s16 7.2 16 16l0 208 64 0 0-208c0-8.8 7.2-16 16-16s16 7.2 16 16l0 208 64 0 0-208c0-8.8 7.2-16 16-16s16 7.2 16 16l0 208 16 0c26.5 0 48-21.5 48-48l0-160c0-8.8 7.2-16 16-16s16 7.2 16 16l0 160c0 44.2-35.8 80-80 80l-208 0 0 96 160 0c8.8 0 16 7.2 16 16s-7.2 16-16 16l-176 0-176 0c-8.8 0-16-7.2-16-16s7.2-16 16-16l160 0 0-96L96 384c-44.2 0-80-35.8-80-80l0-160c0-8.8 7.2-16 16-16z"/></svg>

<svg xmlns="http://www.w3.org/2000/svg" viewBox="0 0 640 512"><!--! Font Awesome Pro 6.5.2 by @fontawesome - https://fontawesome.com License - https://fontawesome.com/license (Commercial License) Copyright 2024 Fonticons, Inc. --><path d="M48 16V80c0 8.8-7.2 16-16 16s-16-7.2-16-16V16C16 7.2 23.2 0 32 0s16 7.2 16 16zm96 0V80c0 8.8-7.2 16-16 16s-16-7.2-16-16V16c0-8.8 7.2-16 16-16s16 7.2 16 16zm96 0V80c0 8.8-7.2 16-16 16s-16-7.2-16-16V16c0-8.8 7.2-16 16-16s16 7.2 16 16zm96 0V80c0 8.8-7.2 16-16 16s-16-7.2-16-16V16c0-8.8 7.2-16 16-16s16 7.2 16 16zm96 0V80c0 8.8-7.2 16-16 16s-16-7.2-16-16V16c0-8.8 7.2-16 16-16s16 7.2 16 16zm96 0V80c0 8.8-7.2 16-16 16s-16-7.2-16-16V16c0-8.8 7.2-16 16-16s16 7.2 16 16zm96 0V80c0 8.8-7.2 16-16 16s-16-7.2-16-16V16c0-8.8 7.2-16 16-16s16 7.2 16 16zM32 128c8.8 0 16 7.2 16 16l0 160c0 26.5 21.5 48 48 48h16V144c0-8.8 7.2-16 16-16s16 7.2 16 16V352h64V144c0-8.8 7.2-16 16-16s16 7.2 16 16V352h64l0-208c0-8.8 7.2-16 16-16s16 7.2 16 16l0 208h64V144c0-8.8 7.2-16 16-16s16 7.2 16 16V352h64V144c0-8.8 7.2-16 16-16s16 7.2 16 16V352h16c26.5 0 48-21.5 48-48l0-160c0-8.8 7.2-16 16-16s16 7.2 16 16l0 160c0 44.2-35.8 80-80 80H336v96H496c8.8 0 16 7.2 16 16s-7.2 16-16 16H320 144c-8.8 0-16-7.2-16-16s7.2-16 16-16H304V384H96c-44.2 0-80-35.8-80-80l0-160c0-8.8 7.2-16 16-16z"/></svg>
